src/assets/filled/Aquarius.svg

<?xml version="1.0" encoding="UTF-8"?>
<svg width="24" height="24" viewBox="0 0 24 24" xmlns="http://www.w3.org/2000/svg">
 <path d="m19.75 9c0-4.27-3.48-7.75-7.75-7.75s-7.75 3.48-7.75 7.75c0 0.41 0.34 0.75 0.75 0.75s0.75-0.34 0.75-0.75c0-3.45 2.8-6.25 6.25-6.25s6.25 2.8 6.25 6.25-2.8 6.25-6.25 6.25c-0.41 0-0.75 0.34-0.75 0.75v6c0 0.41 0.34 0.75 0.75 0.75s0.75-0.34 0.75-0.75v-5.29c3.92-0.38 7-3.69 7-7.71z"/>
 <path d="m15 19.75h-6c-0.41 0-0.75-0.34-0.75-0.75s0.34-0.75 0.75-0.75h6c0.41 0 0.75 0.34 0.75 0.75s-0.34 0.75-0.75 0.75z"/>
</svg>

<svg width="24" height="24" viewBox="0 0 24 24"  xmlns="http://www.w3.org/2000/svg">
<path d="M19.75 9C19.75 4.73 16.27 1.25 12 1.25C7.73 1.25 4.25 4.73 4.25 9C4.25 9.41 4.59 9.75 5 9.75C5.41 9.75 5.75 9.41 5.75 9C5.75 5.55 8.55 2.75 12 2.75C15.45 2.75 18.25 5.55 18.25 9C18.25 12.45 15.45 15.25 12 15.25C11.59 15.25 11.25 15.59 11.25 16V22C11.25 22.41 11.59 22.75 12 22.75C12.41 22.75 12.75 22.41 12.75 22V16.71C16.67 16.33 19.75 13.02 19.75 9Z" />
<path d="M15 19.75H9C8.59 19.75 8.25 19.41 8.25 19C8.25 18.59 8.59 18.25 9 18.25H15C15.41 18.25 15.75 18.59 15.75 19C15.75 19.41 15.41 19.75 15 19.75Z" />
</svg>
